!!!Genre:	Skotshne
!!!Mode:	Freygish
!!!Edition:	2001
!!!Listening/dance:	listening
!!!Free rhythm?:	No
!!!Secondary Modes:	All freygish
!!!One_Mode:	yes
!!!Orig_tonic: G
**kern
*I"P1
*clefG2
*k[b-e-a-]
*G:frey
*M2/4
*>A
=1
8dL
16gL
16gJJ
16gLL
16g
16g
16gJJ
=2
4g
4g
=3
8gL
16bnL
16bJJ
16bLL
16b
16b
16bJJ
=4
4bn
4b
=5
(16bnLL
16ddJ
8ccJ)
(16ccLL
16ddJ
8bJ)
=6
8ddL
8ee-
8dd
8ccJ
=7
2dd
=8
2gg
=9
8dL
16gL
16gJJ
16gLL
16g
16g
16gJJ
=10
4g
4g
=11
8gL
16bnL
16bJJ
16bLL
16b
16b
16bJJ
=12
4bn
4cc
=13
8ccL
8f
8g
8a-J
=14
(16bnLL
16ddJ
8ccJ)
8bL
8a-J
=15
2g
=16
4g
4r
=17!|:
*>B
8gL
8ccJ
(16bnLL
16ddJ
8ccJ)
=18
8ddL
8ee-
8dd
8ccJ
=19
16ccLL
16ee-J
8ddJ
8ddL
8ddJ
=20
(16ddLL
16ee-J
8ccJ)
8bnL
8gJ
=21
8gL
8ccJ
16bnLL
16ddJ
8ccJ
=22
8ddL
8ee-
8dd
8ccJ
=23
2dd
=24
2gg
=25:|!
16gLL
16bnJ
8a-J
8a-L
8a-J
=26
8a-L
8g
8bn
8a-J
=27
2g
=28
4g
4r
=29||
*>C
4ff
4ee-
=30
4dd
8ccL
8bnJ
=31
4dd
4cc
=32
4bn
8a-L
8gJ
=33
8gL
8ccJ
(16bnLL
16ddJ
8ccJ)
=34
(16ddLL
16ffJ
8ee-J)
8ddL
8ccJ
=35
2dd
=36
2gg
=37
4ff
4ee-
=38
4dd
8ccL
8bnJ
=39
4dd
4cc
=40
4bn
(16a-LL
16gJ
8fJ)
=41
(16gLL
16ccJ
8a-J)
8a-L
8a-J
=42
8a-L
8g
8bn
8a-J
=43
2g
=44
4g
4r
==
*-
